svg/emoji_u1f444.svg

<svg xmlns="http://www.w3.org/2000/svg" viewBox="0 0 128 128" width="512px" height="512px"><path d="M3.59 78.16c-.13-.33-.3-.68-.39-1 .1.32.25.66.39 1z" fill="#9f3621"/><path d="M24.84 63.16zm3.14-3.69c.78-.83 1.6-1.66 2.49-2.47-.9.81-1.71 1.63-2.49 2.47zm7.59-6.46c.83-.56 1.69-1.11 2.6-1.63-.91.53-1.77 1.07-2.6 1.63zm-3.96 3.01zm8.41-5.65zm24.07-5.49zm-13.38 1.54c1.33-.32 2.75-.55 4.19-.77-1.43.22-2.85.45-4.19.77zm-5.66 1.72c1.08-.4 2.23-.75 3.39-1.09-1.16.34-2.3.69-3.39 1.09zM18.22 75.49h.03l-.04-.01.01.01zm74.39-22.48zm-4.45-2.64zm-10.69-3.95c-1.33-.32-2.75-.55-4.19-.77 1.44.22 2.86.45 4.19.77zm5.66 1.72c-1.08-.4-2.23-.75-3.39-1.09 1.16.34 2.31.69 3.39 1.09z" fill="#2f2f2f"/><path d="M125.27 75.47c0-9.88-25.81-53.53-45.89-53.53-7.04 0-11.87 1.92-15.3 4.36-3.43-2.44-8.26-4.36-15.3-4.36-20.08 0-45.89 43.66-45.89 53.53 0 .51.13 1.06.29 1.62h-.01c0 .02.02.04.02.06.08.32.26.67.39 1 4.26 11.07 32.31 27.91 60.5 27.91s56.24-16.84 60.5-27.91c.13-.33.3-.68.39-1 .01-.02.02-.04.02-.06h-.01c.16-.56.29-1.11.29-1.62zm-15.31.02h-.03c-.46.14-24.93 7.63-45.84 7.63s-45.38-7.49-45.84-7.63h-.03l-.02-.01s1.69-5.78 6.63-12.31c.78-1.04 1.65-2.09 2.6-3.14.17-.19.37-.37.54-.55.78-.83 1.59-1.66 2.49-2.47.36-.33.77-.65 1.15-.98.77-.66 1.56-1.31 2.41-1.94.49-.37 1.02-.71 1.55-1.07a41.103 41.103 0 0 1 4.46-2.64c.93-.48 1.91-.93 2.92-1.37.69-.3 1.39-.59 2.12-.86 1.08-.4 2.23-.75 3.39-1.09.75-.22 1.48-.45 2.27-.64 1.33-.32 2.75-.55 4.19-.77.72-.11 1.4-.26 2.15-.35 2.23-.26 4.56-.41 7.04-.41 2.48 0 4.81.16 7.04.41.75.09 1.43.24 2.15.35 1.43.22 2.85.46 4.19.77.79.19 1.52.42 2.27.64 1.16.34 2.31.68 3.39 1.09.73.27 1.42.56 2.12.86 1.01.43 1.99.88 2.92 1.37.64.33 1.26.66 1.86 1.01.91.53 1.76 1.07 2.6 1.63.52.35 1.05.7 1.55 1.07.85.63 1.64 1.28 2.41 1.94.38.33.79.64 1.15.98.89.82 1.71 1.64 2.49 2.47.17.19.37.37.54.55.95 1.05 1.82 2.11 2.6 3.14 4.94 6.53 6.63 12.31 6.63 12.31l-.06.01z" fill="#9f3621"/><path d="M103.35 63.16c-.78-1.04-1.65-2.09-2.6-3.14-.17-.19-.37-.37-.54-.55-.78-.83-1.6-1.66-2.49-2.47-.36-.33-.77-.65-1.15-.98-.77-.66-1.56-1.31-2.41-1.94-.49-.37-1.02-.71-1.55-1.07a41.103 41.103 0 0 0-4.46-2.64c-.93-.48-1.91-.93-2.92-1.37-.69-.3-1.39-.59-2.12-.86-1.08-.4-2.23-.75-3.39-1.09-.75-.22-1.48-.45-2.27-.64-1.33-.32-2.75-.55-4.19-.77-.72-.11-1.4-.26-2.15-.35-2.23-.26-4.57-.41-7.04-.41-2.48 0-4.81.16-7.04.41-.75.09-1.43.24-2.15.35-1.43.22-2.86.46-4.19.77-.79.19-1.52.42-2.27.64-1.16.34-2.31.69-3.39 1.09-.73.27-1.42.56-2.12.86-1.01.43-1.99.88-2.92 1.37-.64.33-1.26.66-1.86 1.01-.9.52-1.77 1.07-2.6 1.63-.52.35-1.05.7-1.55 1.07-.85.63-1.64 1.28-2.41 1.94-.38.33-.79.64-1.15.98-.89.82-1.71 1.64-2.49 2.47-.17.19-.37.37-.54.55-.95 1.05-1.82 2.11-2.6 3.14 8.77-5.44 21.68-10.63 39.26-10.63s30.53 5.19 39.3 10.63z" fill="#fff"/><path d="M103.35 63.16c-8.77-5.44-21.68-10.63-39.26-10.63S33.6 57.72 24.84 63.16c-4.94 6.53-6.59 12.32-6.59 12.32.46.14 24.93 7.63 45.84 7.63s45.38-7.49 45.84-7.63l.04-.01s-1.69-5.78-6.62-12.31z" fill="#2f2f2f"/></svg>

<svg xmlns="http://www.w3.org/2000/svg" viewBox="0 0 128 128"><path d="M3.59 78.16c-.13-.33-.3-.68-.39-1 .1.32.25.66.39 1z" fill="#9f3621"/><path d="M24.84 63.16zM27.98 59.47c.78-.83 1.6-1.66 2.49-2.47-.9.81-1.71 1.63-2.49 2.47zM35.57 53.01c.83-.56 1.69-1.11 2.6-1.63-.91.53-1.77 1.07-2.6 1.63zM31.61 56.02zM40.02 50.37zM64.09 44.88zM50.71 46.42c1.33-.32 2.75-.55 4.19-.77-1.43.22-2.85.45-4.19.77zM45.05 48.14c1.08-.4 2.23-.75 3.39-1.09-1.16.34-2.3.69-3.39 1.09zM18.22 75.49h.03l-.04-.01.01.01zM92.61 53.01zM88.16 50.37zM77.47 46.42c-1.33-.32-2.75-.55-4.19-.77 1.44.22 2.86.45 4.19.77zM83.13 48.14c-1.08-.4-2.23-.75-3.39-1.09 1.16.34 2.31.69 3.39 1.09z" fill="#2f2f2f"/><path d="M125.27 75.47c0-9.88-25.81-53.53-45.89-53.53-7.04 0-11.87 1.92-15.3 4.36-3.43-2.44-8.26-4.36-15.3-4.36-20.08 0-45.89 43.66-45.89 53.53 0 .51.13 1.06.29 1.62h-.01c0 .02.02.04.02.06.08.32.26.67.39 1 4.26 11.07 32.31 27.91 60.5 27.91s56.24-16.84 60.5-27.91c.13-.33.3-.68.39-1 .01-.02.02-.04.02-.06h-.01c.16-.56.29-1.11.29-1.62zm-15.31.02h-.03c-.46.14-24.93 7.63-45.84 7.63s-45.38-7.49-45.84-7.63h-.03l-.02-.01s1.69-5.78 6.63-12.31c.78-1.04 1.65-2.09 2.6-3.14.17-.19.37-.37.54-.55.78-.83 1.59-1.66 2.49-2.47.36-.33.77-.65 1.15-.98.77-.66 1.56-1.31 2.41-1.94.49-.37 1.02-.71 1.55-1.07a41.103 41.103 0 0 1 4.46-2.64c.93-.48 1.91-.93 2.92-1.37.69-.3 1.39-.59 2.12-.86 1.08-.4 2.23-.75 3.39-1.09.75-.22 1.48-.45 2.27-.64 1.33-.32 2.75-.55 4.19-.77.72-.11 1.4-.26 2.15-.35 2.23-.26 4.56-.41 7.04-.41 2.48 0 4.81.16 7.04.41.75.09 1.43.24 2.15.35 1.43.22 2.85.46 4.19.77.79.19 1.52.42 2.27.64 1.16.34 2.31.68 3.39 1.09.73.27 1.42.56 2.12.86 1.01.43 1.99.88 2.92 1.37.64.33 1.26.66 1.86 1.01.91.53 1.76 1.07 2.6 1.63.52.35 1.05.7 1.55 1.07.85.63 1.64 1.28 2.41 1.94.38.33.79.64 1.15.98.89.82 1.71 1.64 2.49 2.47.17.19.37.37.54.55.95 1.05 1.82 2.11 2.6 3.14 4.94 6.53 6.63 12.31 6.63 12.31l-.06.01z" fill="#9f3621"/><path d="M103.35 63.16c-.78-1.04-1.65-2.09-2.6-3.14-.17-.19-.37-.37-.54-.55-.78-.83-1.6-1.66-2.49-2.47-.36-.33-.77-.65-1.15-.98-.77-.66-1.56-1.31-2.41-1.94-.49-.37-1.02-.71-1.55-1.07a41.103 41.103 0 0 0-4.46-2.64c-.93-.48-1.91-.93-2.92-1.37-.69-.3-1.39-.59-2.12-.86-1.08-.4-2.23-.75-3.39-1.09-.75-.22-1.48-.45-2.27-.64-1.33-.32-2.75-.55-4.19-.77-.72-.11-1.4-.26-2.15-.35-2.23-.26-4.57-.41-7.04-.41-2.48 0-4.81.16-7.04.41-.75.09-1.43.24-2.15.35-1.43.22-2.86.46-4.19.77-.79.19-1.52.42-2.27.64-1.16.34-2.31.69-3.39 1.09-.73.27-1.42.56-2.12.86-1.01.43-1.99.88-2.92 1.37-.64.33-1.26.66-1.86 1.01-.9.52-1.77 1.07-2.6 1.63-.52.35-1.05.7-1.55 1.07-.85.63-1.64 1.28-2.41 1.94-.38.33-.79.64-1.15.98-.89.82-1.71 1.64-2.49 2.47-.17.19-.37.37-.54.55-.95 1.05-1.82 2.11-2.6 3.14 8.77-5.44 21.68-10.63 39.26-10.63s30.53 5.19 39.3 10.63z" fill="#fff"/><path d="M103.35 63.16c-8.77-5.44-21.68-10.63-39.26-10.63S33.6 57.72 24.84 63.16c-4.94 6.53-6.59 12.32-6.59 12.32.46.14 24.93 7.63 45.84 7.63s45.38-7.49 45.84-7.63l.04-.01s-1.69-5.78-6.62-12.31z" fill="#2f2f2f"/></svg>
